X:36
T:Beauty in Tears
M:3/4
K:D
A2|(d2f2a2)|(f2 d2 B2)|(efgfed)|(fedcBA)|\
d2(fdec)|d2B2G2|A2B2c2|d6:|
(d2f2a2)|(a2a2g2)|(edefga)|(b2g2e2)|\
(dcdefg)|a2(gfed)|(e2a2^g)|(a4f2)|
(f2d2B2)|(B2c2d2)|(efgfed)|(fedcBA)|\
d2(fdec) |d2B2G2|A2B2c2|d4 |>|
